design/phone.svg

<?xml version="1.0" encoding="UTF-8"?>
<svg width="357px" height="535px" viewBox="0 0 357 535" version="1.1" xmlns="http://www.w3.org/2000/svg" xmlns:xlink="http://www.w3.org/1999/xlink">
    <!-- Generator: Sketch 53.2 (72643) - https://sketchapp.com -->
    <title>phone</title>
    <desc>Created with Sketch.</desc>
    <defs>
        <rect id="path-1" x="0" y="0.99796334" width="250" height="489.002037" rx="40"></rect>
        <filter x="-14.8%" y="-6.7%" width="128.8%" height="114.7%" filterUnits="objectBoundingBox" id="filter-2">
            <feMorphology radius="3" operator="dilate" in="SourceAlpha" result="shadowSpreadOuter1"></feMorphology>
            <feOffset dx="-1" dy="3" in="shadowSpreadOuter1" result="shadowOffsetOuter1"></feOffset>
            <feGaussianBlur stdDeviation="8.5" in="shadowOffsetOuter1" result="shadowBlurOuter1"></feGaussianBlur>
            <feColorMatrix values="0 0 0 0 0.368526519   0 0 0 0 0.489322469   0 0 0 0 0.582257699  0 0 0 0.348776224 0" type="matrix" in="shadowBlurOuter1"></feColorMatrix>
        </filter>
        <path d="M27,288 L285,288 C299.911688,288 312,300.088312 312,315 L312,345 C312,359.911688 299.911688,372 285,372 L27,372 C12.0883118,372 1.82615513e-15,359.911688 0,345 L0,315 C-1.82615513e-15,300.088312 12.0883118,288 27,288 Z M27,192 L269,192 C283.911688,192 296,204.088312 296,219 L296,249 C296,263.911688 283.911688,276 269,276 L27,276 C12.0883118,276 1.82615513e-15,263.911688 0,249 L0,219 C-1.82615513e-15,204.088312 12.0883118,192 27,192 Z M27,96 L253,96 C267.911688,96 280,108.088312 280,123 L280,153 C280,167.911688 267.911688,180 253,180 L27,180 C12.0883118,180 1.82615513e-15,167.911688 0,153 L0,123 C-1.82615513e-15,108.088312 12.0883118,96 27,96 Z M27,0 L237,3.55271368e-15 C251.911688,8.13480987e-16 264,12.0883118 264,27 L264,57 C264,71.9116882 251.911688,84 237,84 L27,84 C12.0883118,84 1.82615513e-15,71.9116882 0,57 L0,27 C-1.82615513e-15,12.0883118 12.0883118,2.73923269e-15 27,0 Z" id="path-3"></path>
        <filter x="-2.2%" y="-1.3%" width="104.5%" height="103.8%" filterUnits="objectBoundingBox" id="filter-4">
            <feMorphology radius="1.5" operator="erode" in="SourceAlpha" result="shadowSpreadOuter1"></feMorphology>
            <feOffset dx="0" dy="2" in="shadowSpreadOuter1" result="shadowOffsetOuter1"></feOffset>
            <feGaussianBlur stdDeviation="3.5" in="shadowOffsetOuter1" result="shadowBlurOuter1"></feGaussianBlur>
            <feColorMatrix values="0 0 0 0 0.666535488   0 0 0 0 0.764391284   0 0 0 0 0.823228034  0 0 0 1 0" type="matrix" in="shadowBlurOuter1"></feColorMatrix>
        </filter>
    </defs>
    <g id="landing" stroke="none" stroke-width="1" fill="none" fill-rule="evenodd">
        <g id="2" transform="translate(-143.000000, -52.000000)">
            <g id="phone" transform="translate(167.000000, 71.000000)">
                <g id="Group-8">
                    <g id="Rectangle">
                        <use fill="black" fill-opacity="1" filter="url(#filter-2)" xlink:href="#path-1"></use>
                        <use fill="#F6FAFF" fill-rule="evenodd" xlink:href="#path-1"></use>
                    </g>
                    <path d="M30,0.99796334 L220,0.99796334 C236.568542,0.99796334 250,14.4294208 250,30.9979633 L250,52.9979633 L0,52.9979633 L0,30.9979633 C-2.02906125e-15,14.4294208 13.4314575,0.99796334 30,0.99796334 Z" id="Rectangle-Copy-3" fill="#6CADFF"></path>
                    <rect id="Rectangle-Copy" stroke="#000000" stroke-width="12" x="-6" y="-5.00203666" width="262" height="501.002037" rx="40"></rect>
                    <path d="M57,0 L193,0 L193,6 C193,11.5228475 188.522847,16 183,16 L67,16 C61.4771525,16 57,11.5228475 57,6 L57,0 Z" id="Rectangle" fill="#000000"></path>
                    <path d="M106,3 L144,3 C145.104569,3 146,3.8954305 146,5 C146,6.1045695 145.104569,7 144,7 L106,7 C104.895431,7 104,6.1045695 104,5 C104,3.8954305 104.895431,3 106,3 Z M152,3 C153.104569,3 154,3.8954305 154,5 C154,6.1045695 153.104569,7 152,7 C150.895431,7 150,6.1045695 150,5 C150,3.8954305 150.895431,3 152,3 Z" id="Combined-Shape" fill="#1A1A1A"></path>
                    <text id="My-lessons" font-family="Kodchasan-SemiBold, Kodchasan SemiBold" font-size="22" font-weight="500" letter-spacing="-0.0769999996" fill="#FFFFFF">
                        <tspan x="64.664" y="43">My lessons</tspan>
                    </text>
                </g>
                <g id="уроки" transform="translate(17.000000, 70.000000)">
                    <g id="Combined-Shape">
                        <use fill="black" fill-opacity="1" filter="url(#filter-4)" xlink:href="#path-3"></use>
                        <use fill="#FFFFFF" fill-rule="evenodd" xlink:href="#path-3"></use>
                    </g>
                    <text id="4.-Help-me!" font-family="Arial-BoldMT, Arial" font-size="16" font-weight="bold" letter-spacing="-0.056" fill="#50525B">
                        <tspan x="22" y="322">4. Help me!</tspan>
                    </text>
                    <text id="2-day-ago" font-family="Arial-BoldMT, Arial" font-size="14" font-weight="bold" letter-spacing="-0.049" fill="#D3DBE7">
                        <tspan x="22" y="343">2 day ago</tspan>
                    </text>
                    <g id="Group" transform="translate(268.000000, 319.000000)">
                        <circle id="Oval-Copy" fill="#AFF265" cx="11" cy="11" r="11"></circle>
                        <circle id="Oval" fill="#FFFFFF" cx="11" cy="11" r="7.33333333"></circle>
                    </g>
                    <text id="3.-And-EASYLANG…" font-family="Arial-BoldMT, Arial" font-size="16" font-weight="bold" letter-spacing="-0.056" fill="#50525B">
                        <tspan x="22" y="226">3. And EASYLANG</tspan>
                        <tspan x="162.800625" y="226" font-family="Kodchasan-SemiBold, Kodchasan SemiBold" font-weight="500">…</tspan>
                    </text>
                    <text id="3-day-ago" font-family="Arial-BoldMT, Arial" font-size="14" font-weight="bold" letter-spacing="-0.049" fill="#D3DBE7">
                        <tspan x="22" y="247">3 day ago</tspan>
                    </text>
                    <g id="Group" transform="translate(263.000000, 233.000000) scale(-1, 1) translate(-263.000000, -233.000000) translate(252.000000, 222.000000)">
                        <circle id="Oval-Copy" fill="#AFF265" cx="11" cy="11" r="11"></circle>
                        <path d="M11,22 C11,17.0751322 11,5.95722933 11,0 C4.92486775,0 0,4.92486775 0,11 C0,17.0751322 4.92486775,22 11,22 Z" id="Oval-Copy-9" fill="#FFEB5D"></path>
                        <circle id="Oval" fill="#FFFFFF" cx="11" cy="11" r="7.33333333"></circle>
                    </g>
                    <text id="2.-And-getting-bette" font-family="Arial-BoldMT, Arial" font-size="16" font-weight="bold" letter-spacing="-0.056" fill="#50525B">
                        <tspan x="22" y="130">2. And getting better…</tspan>
                    </text>
                    <text id="4-Day-ago" font-family="Arial-BoldMT, Arial" font-size="14" font-weight="bold" letter-spacing="-0.049" fill="#D3DBE7">
                        <tspan x="22" y="151">4 Day ago</tspan>
                    </text>
                    <text id="1.-I-study…" font-family="Arial-BoldMT, Arial" font-size="16" font-weight="bold" letter-spacing="-0.056" fill="#50525B">
                        <tspan x="21" y="34">1. I study…</tspan>
                    </text>
                    <text id="5-Day-ago" font-family="Arial-BoldMT, Arial" font-size="14" font-weight="bold" letter-spacing="-0.049" fill="#D3DBE7">
                        <tspan x="21" y="55">5 Day ago</tspan>
                    </text>
                    <circle id="Oval" fill="#E5EBF6" cx="231" cy="42" r="11"></circle>
                    <g id="Group" transform="translate(241.000000, 127.000000)">
                        <circle id="Oval-Copy" fill="#FF9861" cx="11" cy="11" r="11"></circle>
                        <path d="M11,22 C11,22 11,1.42108547e-14 11,1.42108547e-14 C4.92486775,1.42108547e-14 1.33226763e-14,4.92486775 1.33226763e-14,11 C1.33226763e-14,17.0751322 4.92486775,22 11,22 Z" id="Oval-Copy-2" fill="#FFEB5D"></path>
                        <circle id="Oval" fill="#FFFFFF" cx="11" cy="11" r="7.33333333"></circle>
                    </g>
                </g>
                <g id="добавить-copy" transform="translate(173.000000, 416.000000)">
                    <circle id="Oval-Copy" fill="#FFFFFF" cx="27" cy="27" r="27"></circle>
                    <circle id="Oval-Copy-2" fill="#6CD8FF" cx="27.4909091" cy="27.4909091" r="22.5818182"></circle>
                    <path d="M27.4909091,27.4909091 L27.4909091,19.6363636 L27.4909091,27.4909091 L19.6363636,27.4909091 L27.4909091,27.4909091 Z M27.4909091,27.4909091 L35.3454545,27.4909091 L27.4909091,27.4909091 L27.4909091,35.3454545 L27.4909091,27.4909091 Z" id="Combined-Shape" stroke="#FFFFFF" stroke-width="6" stroke-linecap="round" stroke-linejoin="round"></path>
                </g>
            </g>
        </g>
    </g>
</svg>

<?xml version="1.0" encoding="utf-8"?>
<!-- Generator: Adobe Illustrator 22.1.0, SVG Export Plug-In . SVG Version: 6.00 Build 0)  -->
<svg version="1.1" id="Слой_1" xmlns="http://www.w3.org/2000/svg" xmlns:xlink="http://www.w3.org/1999/xlink" x="0px" y="0px"
	 viewBox="0 0 357 535" style="enable-background:new 0 0 357 535;" xml:space="preserve">
<style type="text/css">
	.st0{filter:url(#filter-2);}
	.st1{fill:#F6FAFF;}
	.st2{fill:#6CADFF;}
	.st3{fill:none;stroke:#000000;stroke-width:12;}
	.st4{fill:#1A1A1A;}
	.st5{fill:#FFFFFF;}
	.st6{font-family:'Kodchasan-Medium';}
	.st7{font-size:22px;}
	.st8{filter:url(#filter-4);}
	.st9{fill:#50525B;}
	.st10{font-family:'Arial-BoldMT';}
	.st11{font-size:16px;}
	.st12{fill:#D3DBE7;}
	.st13{font-size:14px;}
	.st14{fill:#AFF265;}
	.st15{fill:#FFEB5D;}
	.st16{fill:#E5EBF6;}
	.st17{fill:#FF9861;}
	.st18{fill:#6CD8FF;}
	.st19{fill:none;stroke:#FFFFFF;stroke-width:6;stroke-linecap:round;stroke-linejoin:round;}
</style>
<filter  filterUnits="objectBoundingBox" height="103.8%" id="filter-4" width="104.5%" x="-2.2%" y="-1.3%">
	<feMorphology  in="SourceAlpha" operator="erode" radius="1.5" result="shadowSpreadOuter1"></feMorphology>
	<feOffset  dx="0" dy="2" in="shadowSpreadOuter1" result="shadowOffsetOuter1"></feOffset>
	<feGaussianBlur  in="shadowOffsetOuter1" result="shadowBlurOuter1" stdDeviation="3.5"></feGaussianBlur>
	
		<feColorMatrix  in="shadowBlurOuter1" type="matrix" values="0 0 0 0 0.666535488   0 0 0 0 0.764391284   0 0 0 0 0.823228034  0 0 0 1 0">
		</feColorMatrix>
</filter>
<filter  filterUnits="objectBoundingBox" height="114.7%" id="filter-2" width="128.8%" x="-14.8%" y="-6.7%">
	<feMorphology  in="SourceAlpha" operator="dilate" radius="3" result="shadowSpreadOuter1"></feMorphology>
	<feOffset  dx="-1" dy="3" in="shadowSpreadOuter1" result="shadowOffsetOuter1"></feOffset>
	<feGaussianBlur  in="shadowOffsetOuter1" result="shadowBlurOuter1" stdDeviation="8.5"></feGaussianBlur>
	
		<feColorMatrix  in="shadowBlurOuter1" type="matrix" values="0 0 0 0 0.368526519   0 0 0 0 0.489322469   0 0 0 0 0.582257699  0 0 0 0.348776224 0">
		</feColorMatrix>
</filter>
<title>phone</title>
<desc>Created with Sketch.</desc>
<g id="landing">
	<g id="_x32_" transform="translate(-143.000000, -52.000000)">
		<g id="phone" transform="translate(167.000000, 71.000000)">
			<g id="Group-8">
				<g id="Rectangle">
					<g class="st0">
						<path id="path-1_2_" d="M40,1h170c22.1,0,40,17.9,40,40v409c0,22.1-17.9,40-40,40H40c-22.1,0-40-17.9-40-40V41
							C0,18.9,17.9,1,40,1z"/>
					</g>
					<g>
						<path id="path-1_1_" class="st1" d="M40,1h170c22.1,0,40,17.9,40,40v409c0,22.1-17.9,40-40,40H40c-22.1,0-40-17.9-40-40V41
							C0,18.9,17.9,1,40,1z"/>
					</g>
				</g>
				<path id="Rectangle-Copy-3" class="st2" d="M30,1h190c16.6,0,30,13.4,30,30v22H0V31C0,14.4,13.4,1,30,1z"/>
				<path id="Rectangle-Copy" class="st3" d="M34-5h182c22.1,0,40,17.9,40,40v421c0,22.1-17.9,40-40,40H34c-22.1,0-40-17.9-40-40V35
					C-6,12.9,11.9-5,34-5z"/>
				<path id="Rectangle_1_" d="M57,0h136v6c0,5.5-4.5,10-10,10H67c-5.5,0-10-4.5-10-10V0z"/>
				<path id="Combined-Shape" class="st4" d="M106,3h38c1.1,0,2,0.9,2,2s-0.9,2-2,2h-38c-1.1,0-2-0.9-2-2S104.9,3,106,3z M152,3
					c1.1,0,2,0.9,2,2s-0.9,2-2,2s-2-0.9-2-2S150.9,3,152,3z"/>
				<text transform="matrix(1 0 0 1 64.664 43)" class="st5 st6 st7">My lessons</text>
			</g>
			<g id="уроки" transform="translate(17.000000, 70.000000)">
				<g id="Combined-Shape_1_">
					<g class="st8">
						<path id="path-3_2_" d="M27,288h258c14.9,0,27,12.1,27,27v30c0,14.9-12.1,27-27,27H27c-14.9,0-27-12.1-27-27v-30
							C0,300.1,12.1,288,27,288z M27,192h242c14.9,0,27,12.1,27,27v30c0,14.9-12.1,27-27,27H27c-14.9,0-27-12.1-27-27v-30
							C0,204.1,12.1,192,27,192z M27,96h226c14.9,0,27,12.1,27,27v30c0,14.9-12.1,27-27,27H27c-14.9,0-27-12.1-27-27v-30
							C0,108.1,12.1,96,27,96z M27,0h210c14.9,0,27,12.1,27,27v30c0,14.9-12.1,27-27,27H27C12.1,84,0,71.9,0,57V27
							C0,12.1,12.1,0,27,0z"/>
					</g>
					<g>
						<path id="path-3_1_" class="st5" d="M27,288h258c14.9,0,27,12.1,27,27v30c0,14.9-12.1,27-27,27H27c-14.9,0-27-12.1-27-27v-30
							C0,300.1,12.1,288,27,288z M27,192h242c14.9,0,27,12.1,27,27v30c0,14.9-12.1,27-27,27H27c-14.9,0-27-12.1-27-27v-30
							C0,204.1,12.1,192,27,192z M27,96h226c14.9,0,27,12.1,27,27v30c0,14.9-12.1,27-27,27H27c-14.9,0-27-12.1-27-27v-30
							C0,108.1,12.1,96,27,96z M27,0h210c14.9,0,27,12.1,27,27v30c0,14.9-12.1,27-27,27H27C12.1,84,0,71.9,0,57V27
							C0,12.1,12.1,0,27,0z"/>
					</g>
				</g>
				<text transform="matrix(1 0 0 1 22 322)" class="st9 st10 st11">4.  The expert in everything...</text>
				<text transform="matrix(1 0 0 1 22 343)" class="st12 st10 st13">2 days ago</text>
				<g id="Group" transform="translate(268.000000, 319.000000)">
					<circle id="Oval-Copy" class="st14" cx="11" cy="11" r="11"/>
					<circle id="Oval" class="st5" cx="11" cy="11" r="7.3"/>
				</g>
				<text transform="matrix(1 0 0 1 22 226)" class="st9 st10 st11">3. And EASYLANG</text>
				<text transform="matrix(1 0 0 1 162.8006 226)" class="st9 st10 st11"> </text>
				<text transform="matrix(1 0 0 1 162.8006 226)" class="st9 st6 st11">…</text>
				<text transform="matrix(1 0 0 1 22 247)" class="st12 st10 st13">3 days ago</text>
				
					<g id="Group_1_" transform="translate(263.000000, 233.000000) scale(-1, 1) translate(-263.000000, -233.000000) translate(252.000000, 222.000000)">
					<circle id="Oval-Copy_1_" class="st14" cx="11" cy="11" r="11"/>
					<path id="Oval-Copy-9" class="st15" d="M11,22c0-4.9,0-16,0-22C4.9,0,0,4.9,0,11S4.9,22,11,22z"/>
					<circle id="Oval_1_" class="st5" cx="11" cy="11" r="7.3"/>
				</g>
				<text transform="matrix(1 0 0 1 22 130)" class="st9 st10 st11">2. Is getting better…</text>
				<text transform="matrix(1 0 0 1 22 151)" class="st12 st10 st13">4 days ago</text>
				<text transform="matrix(1 0 0 1 21 34)" class="st9 st10 st11">1. I study…</text>
				<text transform="matrix(1 0 0 1 21 55)" class="st12 st10 st13">5 days ago</text>
				<circle id="Oval_2_" class="st16" cx="231" cy="42" r="11"/>
				<g id="Group_2_" transform="translate(241.000000, 127.000000)">
					<circle id="Oval-Copy_2_" class="st17" cx="11" cy="11" r="11"/>
					<path id="Oval-Copy-2" class="st15" d="M11,22V0C4.9,0,0,4.9,0,11S4.9,22,11,22z"/>
					<circle id="Oval_3_" class="st5" cx="11" cy="11" r="7.3"/>
				</g>
			</g>
			<g id="добавить-copy" transform="translate(173.000000, 416.000000)">
				<circle id="Oval-Copy_3_" class="st5" cx="27" cy="27" r="27"/>
				<circle id="Oval-Copy-2_1_" class="st18" cx="27.5" cy="27.5" r="22.6"/>
				<path id="Combined-Shape_2_" class="st19" d="M27.5,27.5v-7.9V27.5h-7.9H27.5z M27.5,27.5h7.9H27.5v7.9V27.5z"/>
			</g>
		</g>
	</g>
</g>
</svg>
